public/images/Phone.svg

<svg width="25" height="25" viewBox="0 0 25 25" fill="none" xmlns="http://www.w3.org/2000/svg">
<path id="Vector" d="M24.985 18.885C24.7621 20.5788 23.9303 22.1335 22.6449 23.2588C21.3595 24.3841 19.7084 25.0031 18 25C8.07501 25 1.13108e-05 16.925 1.13108e-05 6.99999C-0.00305116 5.2916 0.61587 3.64052 1.74118 2.35511C2.86649 1.0697 4.42122 0.237875 6.11501 0.0149912C6.54333 -0.0373076 6.97707 0.0503186 7.35149 0.264789C7.72592 0.47926 8.02094 0.809072 8.19251 1.20499L10.8325 7.09874V7.11374C10.9639 7.41681 11.0181 7.74769 10.9904 8.07684C10.9627 8.40598 10.8539 8.72314 10.6738 8.99999C10.6513 9.03374 10.6275 9.06499 10.6025 9.09624L8.00001 12.1812C8.93626 14.0837 10.9263 16.0562 12.8538 16.995L15.8963 14.4062C15.9261 14.3811 15.9574 14.3578 15.99 14.3362C16.2666 14.1517 16.5849 14.0391 16.916 14.0086C17.2471 13.978 17.5806 14.0305 17.8863 14.1612L17.9025 14.1687L23.7913 16.8075C24.1879 16.9785 24.5185 17.2732 24.7337 17.6477C24.9489 18.0222 25.037 18.4562 24.985 18.885Z" fill="black"/>
</svg>

<svg width="25" height="25" fill="none" xmlns="http://www.w3.org/2000/svg"><path d="M24.985 18.885A7.032 7.032 0 0 1 18 25C8.075 25 0 16.925 0 7A7.032 7.032 0 0 1 6.115.015a2 2 0 0 1 2.078 1.19l2.64 5.894v.015A2 2 0 0 1 10.672 9a1.368 1.368 0 0 1-.07.096L8 12.181c.936 1.903 2.926 3.875 4.854 4.814l3.042-2.589c.03-.025.061-.048.094-.07a2 2 0 0 1 1.896-.175l.017.008 5.888 2.639a2 2 0 0 1 1.194 2.077Z" fill="#000"/></svg>
